X: 129
T:Missa Quem dicunt homines / Sanctus
N: Derived from Jos1003d-Missa_Quem_dicunt_homines-Sanctus.krn
C: Josquin des Prez
%%abc-version 2.0
%%abcx-abcm2ps-target-version 5.9.1 (29 Sep 2008)
%%abc-creator hum2abc beta
%%abcx-conversion-date 2019/02/12 16:15:44
%%abc-edited-by Jesse Rodin
%%abc-edited-by Jesse Rodin (May 2013)
%%abcx-initial-encoding-date 2013/05/09/
%%humdrum-veritas 774153016
%%humdrum-veritas-data 2521397638
%%linebreak <none>
%%barnumbers 0
L: 1/4
M: 2/1
Q: 1/2=120
%%staves [1 2 3 4]
V: 1 clef=treble
V: 2 clef=treble-8
V: 3 clef=treble-8
V: 4 clef=bass
K: C
[V:1] z8 | 
[V:2] G3AB2c2- | 
[V:3] z8 | 
[V:4] z8 | 
[V:1] G3AB2c2- | 
[V:2] cdefd2c2 | 
[V:3] z8 | 
[V:4] z8 | 
[V:1] cBG2A2B2 | 
[V:2] e4f2g2 | 
[V:3] c3BA2G2 | 
[V:4] z8 | 
[V:1] G3ABcd2- | 
[V:2] e4d4 | 
[V:3] c4B3c | 
[V:4] z4G,3A, | 
[V:1] d2c4B2 | 
[V:2] g8 | 
[V:3] d2e4d2 | 
[V:4] B,2C3B,G,2 | 
[V:1] A2G3FD2 | 
[V:2] z8 | 
[V:3] c2d2B3A | 
[V:4] A,2B,2G,3F, | 
[V:1] E2F2D4 | 
[V:2] z4g3f | 
[V:3] G2A2B4- | 
[V:4] E,2D,2G,4- | 
[V:1] z2d3cB2 | 
[V:2] e2d2g4 | 
[V:3] B4z2d2- | 
[V:4] G,8 | 
[V:1] A2d2c2A2- | 
[V:2] f2g2a2f2- | 
[V:3] dcB2A2d2- | 
[V:4] z4F,3E, | 
[V:1] ABc4BA | 
[V:2] f2e4d2 | 
[V:3] d2G2A4 | 
[V:4] D,2C,2F,4 | 
[V:1] G8- | 
[V:2] e8- | 
[V:3] z2B2c2B2 | 
[V:4] E,4z2E,2 | 
[V:1] G8 | 
[V:2] e8 | 
[V:3] c3B/c/B2G2 | 
[V:4] C,2C,2E,4 | 
[V:1] z2B2c2B2 | 
[V:2] z2g2a2g2 | 
[V:3] d3c/B/A2d2- | 
[V:4] G,4F,2G,2 | 
[V:1] c3B/c/B2G2- | 
[V:2] e3fg2d2 | 
[V:3] d2c2dcBA | 
[V:4] A,4G,3F, | 
[V:1] G2c2B2GA | 
[V:2] e2g3fe2 | 
[V:3] G4z2G2- | 
[V:4] E,2C,2E,3F, | 
[V:1] Bcd3cc2- | 
[V:2] d4z2g2 | 
[V:3] GABcd2e2 | 
[V:4] G,3A,B,2C2 | 
[V:1] c2B2c4 | 
[V:2] g2g2e3f | 
[V:3] d4c4 | 
[V:4] G,4z2C2 | 
[V:1] z2c2c2c2 | 
[V:2] g4z2cd | 
[V:3] z8 | 
[V:4] C2C2A,3B, | 
[V:1] A3BcBAG | 
[V:2] ecf3ee2- | 
[V:3] z2c2c2c2 | 
[V:4] CB,A,G,A,4 | 
[V:1] A4G4 | 
[V:2] e2d2e4 | 
[V:3] A3BcBBA/G/ | 
[V:4] F,4E,2E,2 | 
[V:1] F4E3F | 
[V:2] z2c3Bcd | 
[V:3] A4G4 | 
[V:4] F,3E,C,4 | 
[V:1] G2A4G2 | 
[V:2] e2f4e2 | 
[V:3] z2FGABc2 | 
[V:4] z8 | 
[V:1] c4B2e2- | 
[V:2] a4g4- | 
[V:3] ABcde2cd | 
[V:4] z8 | 
[V:1] e2d2c4 | 
[V:2] g4z4 | 
[V:3] efg2e2fe | 
[V:4] z2G,2A,2F,2 | 
[V:1] B4z4 | 
[V:2] z4z2g2 | 
[V:3] dcd3cc2- | 
[V:4] G,4C,2E,2 | 
[V:1] z2d2e2c2 | 
[V:2] a2f2g3f/e/ | 
[V:3] cBBAc4 | 
[V:4] D,4C,4 | 
[V:1] d4G2B2 | 
[V:2] defdefg2- | 
[V:3] z8 | 
[V:4] z8 | 
[V:1] A4G4 | 
[V:2] g2^f2g4 | 
[V:3] d6e2 | 
[V:4] z4G,4 | 
[V:1] z4z2d2 | 
[V:2] e2f2d4 | 
[V:3] c2d3GG2- | 
[V:4] A,2F,2G,4 | 
[V:1] e2c2d4 | 
[V:2] z2e2f2d2 | 
[V:3] G2c4B2 | 
[V:4] C,2E,2D,4 | 
[V:1] G2B2A4 | 
[V:2] g3fe2f2 | 
[V:3] e2d2c2d2- | 
[V:4] C,2G,2A,2F,2 | 
[V:1] G2d2e2c2 | 
[V:2] d2g4fe | 
[V:3] dGG4c2- | 
[V:4] G,4C,2E,2 | 
[V:1] d4G4 ||  
[V:2] f4e4 ||  
[V:3] cBBAc4 ||  
[V:4] D,4C,4 ||  
[V:1]  [K:C] [K:clef=treble][M:3/1]z12 | 
[V:2]  [K:C] [K:clef=treble-8][M:3/1]g12 | 
[V:3]  [K:C] [K:clef=treble-8][M:3/1]d12 | 
[V:4]  [K:C] [K:clef=bass][M:3/1]G,6A,2B,4 | 
[V:1] z4z4c4 | 
[V:2] a4g8 | 
[V:3] e12 | 
[V:4] C4G,4C4- | 
[V:1] c6B2A4 | 
[V:2] e8f4 | 
[V:3] c8c4 | 
[V:4] C2B,2A,2G,2F,4 | 
[V:1] G4c8 | 
[V:2] d4c2d2e2f2 | 
[V:3] B4c8 | 
[V:4] G,4A,8 | 
[V:1] B8z4 | 
[V:2] g6d2e4 | 
[V:3] d6B2c4 | 
[V:4] G,8z4 | 
[V:1] G6A2B4 | 
[V:2] d4g8 | 
[V:3] B12 | 
[V:4] G,12 | 
[V:1] c4A4c4- | 
[V:2] e6d2e4 | 
[V:3] z4z4c4 | 
[V:4] A,12 | 
[V:1] c2B2A2G2F4 | 
[V:2] f6e2c2d2 | 
[V:3] c6B2A4 | 
[V:4] F,8F,4 | 
[V:1] G4A8 | 
[V:2] e4A4f2e2 | 
[V:3] G4c8 | 
[V:4] E,4F,8 | 
[V:1] G12- | 
[V:2] d2c2d6c2 | 
[V:3] B6A2B4 | 
[V:4] G,6F,2G,4 | 
[V:1] G4d8 | 
[V:2] c8B4 | 
[V:3] G8F4 | 
[V:4] E,4D,8 | 
[V:1] [M:2/1]e4c4 | 
[V:2] [M:2/1]c4z2cd | 
[V:3] [M:2/1]G2g3fed | 
[V:4] [M:2/1]C,4C3B, | 
[V:1] c2B2c4 | 
[V:2] efg3^f^fe | 
[V:3] c2e4dc | 
[V:4] A,2G,2A,4 | 
[V:1] d3cB2A2 | 
[V:2] g2GABGc2- | 
[V:3] B3cd2e2- | 
[V:4] G,4z2C,D, | 
[V:1] G4z2A2 | 
[V:2] c2B2c3d | 
[V:3] e2d2e2f2 | 
[V:4] E,F,G,4F,2 | 
[V:1] B2d4c2- | 
[V:2] B2A2a4- | 
[V:3] d3cABc2 | 
[V:4] G,2D,E,F,G,A,2 | 
[V:1] c2B2ABcd | 
[V:2] a2gfe2a2 | 
[V:3] A2B2c4 | 
[V:4] F,2G,2A,3B, | 
[V:1] e2f4e2 | 
[V:2] g2a4gf | 
[V:3] z2c3def | 
[V:4] C2F,G,A,B,C2- | 
[V:1] c2d3cBA | 
[V:2] e2d2g2GA | 
[V:3] g2GABcd2 | 
[V:4] C2B,2G,3F, | 
[V:1] G2F2E2CD | 
[V:2] Bcd2G2g2 | 
[V:3] e2ABcdef | 
[V:4] E,2D,2C,4 | 
[V:1] EFGABcd2- | 
[V:2] cdefg4- | 
[V:3] g2G2-GABc | 
[V:4] z4G,3A, | 
[V:1] dcc4B2 | 
[V:2] g8- | 
[V:3] d2e2d4 | 
[V:4] B,2C2G,4 | 
[V:1] c8 ||  
[V:2] g8 ||  
[V:3] c8 ||  
[V:4] C,8 ||  
[V:1]  [K:C] [K:clef=treble][M:2/1]c6c2 | 
[V:2]  [K:C] [K:clef=treble-8][M:2/1]e6e2 | 
[V:3]  [K:C] [K:clef=treble-8][M:2/1]G6G2 | 
[V:4]  [K:C] [K:clef=bass][M:2/1]C,6C,2 | 
[V:1] c4B4 | 
[V:2] f4d3e | 
[V:3] A4B4 | 
[V:4] F,4G,4 | 
[V:1] A8 | 
[V:2] f2e2e4 | 
[V:3] c8 | 
[V:4] A,8 | 
[V:1] c8- | 
[V:2] a8 | 
[V:3] f3ec2f2- | 
[V:4] F,8 | 
[V:1] c8 | 
[V:2] g8- | 
[V:3] f2ede4 | 
[V:4] C8 | 
[V:1] B16 | 
[V:2] g16 | 
[V:3] d16 | 
[V:4] G,16 | 
[V:1] G4G4 | 
[V:2] e4e4- | 
[V:3] c4c4- | 
[V:4] C,4C,4- | 
[V:1] G2G2A2c2- | 
[V:2] e2e2f2g2 | 
[V:3] c2B2d2e2 | 
[V:4] C,2E,2D,2C,2 | 
[V:1] cBA4G2 | 
[V:2] a4z4 | 
[V:3] f4e4- | 
[V:4] F,3G,A,B,C2- | 
[V:1] c4B2A2- | 
[V:2] g6fe | 
[V:3] e2dcd2c2- | 
[V:4] C2B,A,G,2A,2 | 
[V:1] AGG4F2 | 
[V:2] f2d2e2d2- | 
[V:3] c2B2c2A2- | 
[V:4] F,2G,2C,2F,2- | 
[V:1] A6GF | 
[V:2] d2c4B2 | 
[V:3] AGFEF4 | 
[V:4] F,E,D,C,D,4 | 
[V:1] !fermata!E8 | 
[V:2] !fermata!c8 | 
[V:3] !fermata!G8 | 
[V:4] !fermata!C,8 | 
[V:1] z8 | 
[V:2] g4f2e2 | 
[V:3] z8 | 
[V:4] z8 | 
[V:1] z8 | 
[V:2] g4d2e2- | 
[V:3] c4B2A2 | 
[V:4] z8 | 
[V:1] c4B2A2 | 
[V:2] edg4f2 | 
[V:3] c4G2A2- | 
[V:4] z8 | 
[V:1] c4G4 | 
[V:2] e4d4- | 
[V:3] AGc4B2 | 
[V:4] z4G,4 | 
[V:1] z4G4 | 
[V:2] d2c2B3A/G/ | 
[V:3] A2e3dd2- | 
[V:4] F,2E,2G,4 | 
[V:1] F2E2G4 | 
[V:2] A2G2z2g2 | 
[V:3] dcBAB2c2 | 
[V:4] D,2E,4C,2 | 
[V:1] D2d4c2 | 
[V:2] g4g4 | 
[V:3] B6AG | 
[V:4] G,6F,E, | 
[V:1] d3c/B/A4 | 
[V:2] f8- | 
[V:3] A4z2d2 | 
[V:4] D,8 | 
[V:1] z2A2A4 | 
[V:2] f8 | 
[V:3] d4d4 | 
[V:4] z2D,2D,4 | 
[V:1] A4G4- | 
[V:2] f6ed | 
[V:3] c8- | 
[V:4] F,4C,4- | 
[V:1] G4F4- | 
[V:2] e4a4- | 
[V:3] c8 | 
[V:4] C,4F,4- | 
[V:1] F2EDC2c2 | 
[V:2] a2gfe2f2 | 
[V:3] z4c3d | 
[V:4] F,2G,2A,2F,2 | 
[V:1] c4c4 | 
[V:2] g2e4dc | 
[V:3] e2c2g4- | 
[V:4] C6B,A, | 
[V:1] B8 | 
[V:2] d4z2G2 | 
[V:3] g2fed2e2 | 
[V:4] G,8 | 
[V:1] A6GF | 
[V:2] A4A2B2 | 
[V:3] f3ec2d2 | 
[V:4] F,6E,D, | 
[V:1] EDG4^F2 | 
[V:2] c4d4 | 
[V:3] G4A4 | 
[V:4] C,2E,2D,4 | 
[V:1] G8- | 
[V:2] d4e4 | 
[V:3] B4c4 | 
[V:4] G,4C,4 | 
[V:1] G8 ||  
[V:2] d8 ||  
[V:3] B8 ||  
[V:4] G,8 ||  
[V:1]  [K:C] [K:clef=treble][M:2/1]c6B2 | 
[V:2]  [K:C] [K:clef=treble-8][M:2/1]z8 | 
[V:3]  [K:C] [K:clef=treble-8][M:2/1]z8 | 
[V:4]  [K:C] [K:clef=bass][M:2/1]z8 | 
[V:1] A4G3F | 
[V:2] z8 | 
[V:3] z8 | 
[V:4] z4C4- | 
[V:1] E2D2C4 | 
[V:2] z8 | 
[V:3] z4z2c2 | 
[V:4] C2B,2A,4 | 
[V:1] z8 | 
[V:2] g6f2 | 
[V:3] B2GABcd2 | 
[V:4] G,3F,E,2D,2 | 
[V:1] z2G2F2DE | 
[V:2] e4d3c | 
[V:3] G4z4 | 
[V:4] C,4z4 | 
[V:1] FGA2D2d2- | 
[V:2] _B2A2G4 | 
[V:3] z4g4- | 
[V:4] z2C2B,2G,A, | 
[V:1] dcA2B2G2- | 
[V:2] z8 | 
[V:3] g2f2e4 | 
[V:4] B,CD2G,4- | 
[V:1] G2FED2E2- | 
[V:2] z8 | 
[V:3] d3cB2A2 | 
[V:4] G,4z2C2- | 
[V:1] EDG4^F2 | 
[V:2] z4z2c2 | 
[V:3] G4z4 | 
[V:4] C2B,2A,4 | 
[V:1] G4z4 | 
[V:2] B2GABcd2 | 
[V:3] z2g4f2 | 
[V:4] G,3F,E,2D,2 | 
[V:1] z4d4- | 
[V:2] G2g2f2de | 
[V:3] e4d3c | 
[V:4] C,4z4 | 
[V:1] d2c2B4 | 
[V:2] fga2d3e | 
[V:3] B2A2G2B2 | 
[V:4] z4z2G,2 | 
[V:1] A3GF2E2 | 
[V:2] f3ga4- | 
[V:3] c2d4c2 | 
[V:4] F,2D,E,F,G,A,2 | 
[V:1] D2d4c2 | 
[V:2] a8- | 
[V:3] f4f4- | 
[V:4] D,4A,4- | 
[V:1] ABcde2A2 | 
[V:2] a4z2f2 | 
[V:3] f4c4- | 
[V:4] A,8- | 
[V:1] c6B2 | 
[V:2] e2cdefg2 | 
[V:3] c4z2G2 | 
[V:4] A,4z4 | 
[V:1] A4G3F | 
[V:2] c3B/A/BGc2- | 
[V:3] ABcde3f | 
[V:4] z2F,2E,2C,D, | 
[V:1] E2D2C2c2- | 
[V:2] c2B2e4 | 
[V:3] g8- | 
[V:4] E,F,G,2C,4 | 
[V:1] c2BAB4 | 
[V:2] d8- | 
[V:3] g4z2G2 | 
[V:4] G,8 | 
[V:1] A4z4 | 
[V:2] d4z4 | 
[V:3] A2F2G3A | 
[V:4] D,4E,2C,2 | 
[V:1] z8 | 
[V:2] z4z2G2 | 
[V:3] Bcd3cc2- | 
[V:4] D,2F,4E,2 | 
[V:1] z2D2E2C2 | 
[V:2] A2F2G3A | 
[V:3] c2B2c2G2- | 
[V:4] D,4C,4 | 
[V:1] D3EFGA2- | 
[V:2] Bcd4c2- | 
[V:3] GABcd2e2 | 
[V:4] G,4z2A,2 | 
[V:1] A2G4^F2 | 
[V:2] c2B2c4 | 
[V:3] f2e4dc | 
[V:4] F,2G,2A,4 | 
[V:1] G8 | 
[V:2] d8 | 
[V:3] B8 | 
[V:4] G,8 | 
[V:1] c8 | 
[V:2] g8 | 
[V:3] e8 | 
[V:4] C,4C,4 | 
[V:1] c6BA | 
[V:2] a8 | 
[V:3] f8 | 
[V:4] F,8 | 
[V:1] B4A4- | 
[V:2] g4e4- | 
[V:3] d6cB | 
[V:4] G,4A,4- | 
[V:1] A8- | 
[V:2] e4f4- | 
[V:3] c4d4- | 
[V:4] A,4D,3E, | 
[V:1] A4z2D2 | 
[V:2] f2e2f2g2 | 
[V:3] d2c2_B4 | 
[V:4] F,G,A,4G,2 | 
[V:1] F4E3F | 
[V:2] c8 | 
[V:3] A4G2A2 | 
[V:4] F,3E,C,2C2- | 
[V:1] G2A4G2- | 
[V:2] z2e2f2e2- | 
[V:3] c6B2 | 
[V:4] CB,A,G,F,2G,2 | 
[V:1] G2^F2G3A | 
[V:2] e2dcB2d2- | 
[V:3] c4d3c | 
[V:4] A,4G,4- | 
[V:1] B2c2defd | 
[V:2] dGc4B2 | 
[V:3] B2AGA2F2 | 
[V:4] G,2F,E,D,4 | 
[V:1] e3d/c/B2d2- | 
[V:2] c4z2g2 | 
[V:3] G2g3fd2 | 
[V:4] C,4G,3F, | 
[V:1] dcc4B2 | 
[V:2] a2g2a2g2 | 
[V:3] f2e2d4 | 
[V:4] D,2E,2F,2G,2 | 
[V:1] A6GF | 
[V:2] e4f4 | 
[V:3] c8- | 
[V:4] A,3G,F,2E,D, | 
[V:1] E8 |]  
[V:2] g8 |]  
[V:3] c8 |]  
[V:4] C,8 |]  



